X:5
T:Polska 
S:efter Anders Peter Roos
O:Hägerstad, Östergötland 
R:Polska
B:Ög 17
B:http://www.smus.se/earkiv/fmk/browselarge.php?lang=sw&katalogid=%C3%96g+17&bildnr=00007
M:3/4
L:1/8
K:D
.a(a/2b/2) .a(a/2b/2) .a(a/2b/2) | .a(f g).e .d2 | ed cd ef | ga b2 a2 ::
(ec) (Ac) .e.g | (fd) (Ad) .f.a | (ec) (Ac) .e.g | (fd) (Ad) .f.a | "*".g(g/2f/2) .g.e .b.g | ec c2 d2 :|]
|"* Ossia".a(^g/2a/2) .b.a .=g.f | .a.g/2.f/2 e2 d2 |]

